X:184
T: Muede kehrt ein Wandersmann zurueck
N: D1015
O: Europa, Mitteleuropa, Deutschland, Rheinlamd Pfalz, Mosel, Mehring
N: rhythmische Korrektur: in Takt 5 Punktierung ergaenzt
N: DVA-Signatur A 151 821
R: Liebes - Lied
M: 4/4
L: 1/8
K: G
DD | G3FGFGA | D4z
DDF | A3GFAed | B4z2
GB | d3dcBAG | e4z
cBA | d3DDcBA | G2z4

